X: 333
T: Bilmiyorum Bana N`oldu
C: Şevki Bey
O: Turkey
F: http://compmusic.upf.edu/node/140
N: hicaz--sarki--aksak--bilmiyorum--sevki_bey
N: makam= hicaz
N: form= sarki
N: usul= aksak = 9/8
M: 9/8
L: 1/16
K: C _7/8B ^f ^c 
Q: 1/4=108
%%MIDI tuningsystem comma53
z2A4c2 B2c2 A4 z2 | A2 A4 c2B2 c2A4z2  | \
w:  Bil mi yo *  rum   |  ba na  *  n'ol *  du   | 
d2d6 d2{e}dc d4 z2 | 
w:  ba na  n'ol *  *  *  du   | 
d2 a4 gff3/2e/ d2e=f efed  | d6e=f edcB A6 | 
w:  ba na  *  *  n'ol  |  du   SAZ  | 
z2 A4 c2B2 c2A4z2  | A2A4c2 B2c2 A4 z2 | \
w:  Bil mi yo *  rum   |  ba na  *  n'ol *  du   | 
d2 d6d2 {e}dcd4z2  | 
w:  ba na  n'ol *  *  *  du   | 
d2a4gf f3/2e/d2 e=fef ed | d6 e=fed cde6  | 
w:  ba na  *  *  n'ol  |  du   SAZ  | 
z2d4e2 e4 e6 | z2 e2f2 g2^1/4f2 e2d2 c2=fe  | \
w:  Dî de le rim   |  kan *  la  dol  | 
e6e=f edcd e6 | 
w:  du  SAZ  | 
z2 g2=f2 e2d2 c2B2 A2{e}dc  | c6cd cBAB c6 | \
w:  kan *  la  dol  |  du   SAZ  | 
z2 g2=f2 e2d2 c2B2 A4  | 
w:  Dî *  de le *  rim   | 
z2e2 d2c2 B2A2 BAG2 {A}GF | G6 ABAG GFG6  | \
w:  kan *  la  dol  |  du  SAZ  | 
z2g2 =f2e2 d2c2 B2A2 c2 | 
w:  kan *  la  dol  | 
A6 fgag fga4z2  | g2g4a2 a2{c'}_1/4ba a6 | \
w:  du   SAZ  |  Ci ğer *  gâ *  *  *  hım   | 
a2 =b4 baa2 {b}aga6  | 
w:  ha râb_ *  *  ol *  *  *  du   | 
a2=b4a2 a2g2 f2e2 d2 | d3ef2 g2a2 bad'c' b2ba  | \
w:  ha râb_ *  ol  |  du  *  *  *  *  *  *  *  *  *  ha  | 
a6a=b agfg a6 | 
w:  râb   SAZ  | 
a2 =b2g2 f2b2 a2g2 ^1/4f2e2  | a2a4gf f3/2e/d2 e=fef ed | 
w:  Ci ğer *  *  gâ *  hım   |  ha râb_ *  *  ol  | 
d12c2 =B2A2  | A2a4gf f3/2e/d2 e=fef ed | \
w:  du   |  ha râb_ *  *  ol  | 
d6 e=fed cde6  | 
w:  du   SAZ  | 
z2d4e2 e4 e6 | z2 e2f2 g2^1/4f2 e2d2 c2=fe  | \
w:  Dî de le rim   |  kan *  la  dol  | 
e6e=f edcd e6 | 
w:  du  SAZ  | 
z2 g2=f2 e2d2 c2B2 A2{e}dc  | c6cd cBAB c6 | \
w:  kan *  la  dol  |  du   SAZ  | 
z2 g2=f2 e2d2 c2B2 A4  | 
w:  Dî *  de le *  rim   | 
z2e2 d2c2 B2A2 BAG2 {A}GF | G6 ABAG GFG6  | \
w:  kan *  la  dol  |  du  SAZ  | 
z2g2 =f2e2 d2c2 B2A2 c2 | 
w:  kan *  la  dol  | 
A6 |
w:  du    | 


